brandFactory_export/3.Masa/Electrocardiograma_3Masa.svg

<?xml version="1.0" encoding="UTF-8"?>
<svg width="24px" height="24px" viewBox="0 0 24 24" version="1.1" xmlns="http://www.w3.org/2000/svg" xmlns:xlink="http://www.w3.org/1999/xlink">
    <title>3.Masa/Electrocardiograma_3Masa</title>
    <g id="Symbols" stroke="none" stroke-width="1" fill="none" fill-rule="evenodd">
        <g id="3.Masa/Electrocardiograma_3Masa" fill="#5CB615" fill-rule="nonzero">
            <path d="M7.1394958,5.11764706 L4.91764706,12.3848739 L2.78655462,12.3848739 C2.16806723,11.0336134 1.68403361,9.69915966 1.37815126,8.38823529 C0.766386555,5.79327731 1.27058824,3.63529412 2.78991597,2.31428571 C3.67394958,1.54789916 4.87731092,1.08739496 6.17815126,1.02016807 C6.29579832,1.01344538 6.41008403,1.01008403 6.52436975,1.01008403 C7.78823529,1.01008403 9.0789916,1.36302521 10.2890756,2.04201681 C10.7361345,2.29411765 11.2,2.56302521 11.7042017,2.86554622 C11.805042,2.92268908 11.9260504,2.92268908 12.0302521,2.86890756 C12.5344538,2.56638655 12.9983193,2.29747899 13.4487395,2.04201681 C14.6554622,1.36638655 15.9495798,1.01008403 17.210084,1.01008403 C17.3277311,1.01008403 17.4420168,1.01344538 17.5596639,1.02016807 C18.8605042,1.08739496 20.0638655,1.54789916 20.9478992,2.31428571 C22.4705882,3.63529412 22.9714286,5.79327731 22.3596639,8.38823529 C22.0436975,9.73277311 21.5428571,11.1042017 20.897479,12.492437 L17.0084034,12.492437 L15.512605,8.1697479 C15.4117647,7.87394958 15.1327731,7.67226891 14.8201681,7.67226891 L14.8,7.67226891 C14.4806723,7.68235294 14.2016807,7.89747899 14.1142857,8.20672269 L12.8705882,12.4890756 L11.6436975,12.4890756 C11.3176471,12.4890756 11.0319328,12.7042017 10.9411765,13.0168067 L10.4336134,14.697479 L8.55798319,5.19159664 C8.49411765,4.85882353 8.21176471,4.61344538 7.87563025,4.59663866 C7.54285714,4.57647059 7.23361345,4.79159664 7.1394958,5.11764706 Z M15.794958,13.4806723 C15.8957983,13.7764706 16.1747899,13.9781513 16.487395,13.9781513 L20.1579832,13.9781513 C19.8319328,14.5798319 19.4857143,15.1680672 19.1226891,15.7428571 C17.8655462,17.7193277 16.8605042,18.9966387 15.1563025,20.7781513 C15.1428571,20.794958 15.1294118,20.8084034 15.1159664,20.8218487 C14.9478992,20.9966387 14.3630252,21.594958 13.8655462,21.9579832 C13.4386555,22.2705882 12.9546218,22.4890756 12.4739496,22.5932773 C12.3361345,22.6268908 12.1882353,22.6470588 12.0369748,22.6571429 L12.0168067,22.6571429 C11.9731092,22.6605042 11.9294118,22.6605042 11.8857143,22.6605042 L11.8453782,22.6605042 C11.7983193,22.6605042 11.7579832,22.6571429 11.7176471,22.6571429 L11.697479,22.6571429 C11.5495798,22.6504202 11.405042,22.6268908 11.2605042,22.5932773 C10.7563025,22.4789916 10.2823529,22.2638655 9.86890756,21.9579832 C9.37142857,21.5983193 8.78655462,20.9966387 8.61848739,20.8218487 C6.88739496,19.0168067 5.87563025,17.7327731 4.61176471,15.7428571 C4.22184874,15.1344538 3.85546218,14.5092437 3.51260504,13.8739496 L5.45882353,13.8739496 C5.78151261,13.8739496 6.06722689,13.6588235 6.16134454,13.3495798 L7.68739496,8.35462185 L9.56638655,17.8840336 C9.63361345,18.2302521 9.93613445,18.4789916 10.2857143,18.4823529 C10.6117647,18.4823529 10.897479,18.2672269 10.9882353,17.9546218 L12.1882353,13.9747899 L13.4184874,13.9747899 C13.7478992,13.9747899 14.0336134,13.7563025 14.1243697,13.4403361 L14.8773109,10.8420168 L15.794958,13.4806723 Z M0.736134454,12.3848739 L2.78655462,12.3848739 L3.51596639,13.8739496 L0.736134454,13.8739496 C0.32605042,13.8705882 -0.00336134454,13.5378151 -2.54973021e-05,13.1277311 C-2.54973021e-05,12.7176471 0.329411765,12.3848739 0.736134454,12.3848739 Z M22.887395,12.4890756 C23.2941176,12.4890756 23.6235549,12.8218487 23.6235549,13.2319328 C23.6268908,13.6420168 23.297479,13.9747899 22.887395,13.9747899 L20.1579832,13.9747899 L20.897479,12.4857143 C20.897479,12.4890756 22.887395,12.4890756 22.887395,12.4890756 L22.887395,12.4890756 Z" id="Electrocardiograma_3Masa"></path>
        </g>
    </g>
</svg>

<svg width="24" height="24" viewBox="0 0 24 24" xmlns="http://www.w3.org/2000/svg"><path d="M7.14 5.118l-2.222 7.267H2.787c-.619-1.351-1.103-2.686-1.409-3.997-.612-2.595-.107-4.753 1.412-6.074.884-.766 2.087-1.227 3.388-1.294a6.04 6.04 0 01.346-.01c1.264 0 2.555.353 3.765 1.032.447.252.911.521 1.415.824a.34.34 0 00.326.003c.504-.303.968-.572 1.419-.827 1.206-.676 2.5-1.032 3.761-1.032.118 0 .232.003.35.01 1.3.067 2.504.528 3.388 1.294 1.523 1.321 2.023 3.48 1.412 6.074-.316 1.345-.817 2.716-1.463 4.104h-3.889L15.513 8.17a.734.734 0 00-.693-.498h-.02a.737.737 0 00-.686.535l-1.243 4.282h-1.227a.731.731 0 00-.703.528l-.507 1.68-1.876-9.505a.733.733 0 00-.682-.595.724.724 0 00-.737.52zm8.655 8.363c.1.295.38.497.692.497h3.671c-.326.602-.672 1.19-1.035 1.765-1.257 1.976-2.262 3.254-3.967 5.035a.517.517 0 01-.04.044c-.168.175-.753.773-1.25 1.136a3.72 3.72 0 01-1.392.635 2.581 2.581 0 01-.437.064h-.02c-.044.004-.088.004-.131.004h-.04c-.048 0-.088-.004-.128-.004h-.02a2.404 2.404 0 01-.437-.064 3.72 3.72 0 01-1.392-.635c-.498-.36-1.082-.961-1.25-1.136-1.732-1.805-2.743-3.09-4.007-5.08a28.924 28.924 0 01-1.1-1.868H5.46a.738.738 0 00.702-.524l1.526-4.995 1.88 9.529a.731.731 0 001.422.07l1.2-3.98h1.23c.329 0 .615-.218.705-.534l.753-2.598.918 2.639zM.736 12.385h2.05l.73 1.489H.736A.74.74 0 010 13.128c0-.41.33-.743.736-.743zm22.151.104a.74.74 0 01.737.743.735.735 0 01-.737.743h-2.729l.74-1.49c0 .004 1.99.004 1.99.004z" fill="#5CB615" fill-rule="nonzero"/></svg>
